X: 35
T:Tobin's Favourite
M:6/8
L:1/8
Q:120
S:THSP
R:jig
K:D
"D"DFA dcd|"A"ecA cde|"D"~f3 "G"~g3|"Em"ecA "A"GFE|
"D"DFA dcd|"A"ecA cde|"D"~f3 "G"gec|"A"edc "D"d3:|
|:"D"dfa agf|"A"efg efg|"D"~f3 "G"~g3|"Em"ecA "A"GFE|
"D"DFA dcd|"A"ecA cde|"D"(3fga f "G"gec|"A"edc "D"d3:||
